!!!COM: Novaro, Michele
!!!CDT: 1822-1885
!!!OTL: National Anthem, Italy - Inno di Mameli (Mameli Hymn)
!!!ENC: Davis, Matthew J.
!!Vocal Line Only
**kern
*clefG2
*k[b-e-]
*X:
*M4/4
=1-
1r
=2
1r
=3
1r
=4
1r
=5
1r
=6
1r
=7
1r
=8
1r
=9
1r
=10
1r
=11
1r
=12
2r
4r
4f
==13
8.f
16g
2f
4dd
=14
8.dd
16ee-
2dd
4dd
=15
8.ff
16ee-
2dd
4cc
=16
8.dd
16cc
2b-
4f
=17
8.f
16g
2f
4dd
=18
8.dd
16ee-
2dd
4dd
=19
8.ff
16ee-
2dd
4cc
=20
8.dd
16cc
2b-
4dd
=21
4dd
2a
8.b-
16cc
=22
8.b-
16a
2g
4b-
=23
8.a
16b-
2cc
4d
=24
2dd
4ee-
4f
=25
8.f
16g
2f
4dd
=26
8.dd
16ee-
2dd
4dd
=27
8.ff
16ee-
[4dd
8dd]
8ff
8cc
8ff
=28
4b-
4r
2r
=29
1r
==30
*k[b-e-a-]
4r
8.r
16g
4g
8g
16g
16f
=31
4a-
8g
16r
16b-
4b-
8b-
16r
16an
=32
4cc
8b-
16r
16b-
4b-
8.cc
16dd
=33
4ee-
8.g
16a-
4cc
8.b-
16g
=34
4a-
8f
16r
16f
4f
8f
16r
16en
=35
4g
8f
16r
16a-
4a-
8a-
16r
16g
=36
4b-
8a-
16r
16ff
4ff
8.ff
16ee-
=37
4dd
8.dd
16cc
4b-
8.b-
16a-
=38
4g
8.r
16g
4g
8.g
16f#
=39
4a-
8g
16r
16g
4g
8.f
16e-
=40
4f
8d
16r
16g
4g
8.g
16f#
=41
4a-
8g
16r
16g
4g
8.f
16e-
=42
4d
8.r
16g
4g
8.g
16f
=43
4a-
8g
16r
16b-
4b-
8.an
16b-
=44
4dd
8cc
16r
16cc
8.cc
16dd
8.ee-
16ff
=45
4gg
8.gg
16gg
4ff
8.ff
16ff
=46
8ee-
8r
4ee-
4r
==|!
*-
